T: Powell's Fancy
M: 9/8
L: 1/8
K: Fmaj
|: f2 d cAF cAF | f2 d c>AF BAG | f2 d cAF cAF | GAB AGF EDC :|
|: f2 a afa afa | f2 a afa gec | f2 a afa afa | gab agf edc :|
